!! 00000] TT[00
!!!OTL: Nai niudu ge
!!!ARE: Gansu
!! Ethnic Group: Yugu
!! Zhongguo Minge Jing Xuan, S. 245
!!!SCT: C1150
!!!YEM: Copyright 1995, estate of Helmut Schaffrath.
**kern
*ICvox
*Ivox
!! Mixed meters:  2/4; 3/4
*M3/4
*k[b-]
*F:
{4r
8f
8g
=1
[2a
=2
2a]}
=3
{8a
16a
16cc
8dd
16dd
16cc
=4
4.a
8f
=5
8.g
16a
8f
16d
16c
=6
8d
[4.d
=7
4d]}
{8d
8f
=8
2g
=9
4.a
8g
=10
8.g
16a
8f
16d
16c
=11
8d
[4.d
=12
2d]}
=13
{4r
8f
8g
=14
[2a
=15
2a]}
=16
{8a
16a
16cc
8dd
16dd
16cc
=17
4.a
8f
=18
8.g
16a
8f
16d
16c
=19
8d
[4.d
=20
4d]}
{8d
8f
=21
2g
=22
4.a
8g
=23
8.g
16a
8f
16d
16c
=24
8d
[4.d
=25
2d]}
=26
{4r
8f
8g
=27
[2a
=28
2a]}
=29
{8a
16a
16cc
8dd
16dd
16cc
=30
4.a
8f
=31
8.g
16a
8f
16d
16c
=32
8d
[4.d
=33
4d]}
{8d
8f
=34
2g
=35
4.a
8g
=36
8.g
16a
8f
16d
16c
=37
8d
[4.d
=38
4d]}
{8d
8f
=39
2g
=40
4.a
8g
=41
8.g
16a
8f
16d
16c
=42
8d
[4.d
=43
2d]}
==
!!!AGN: Xiaodiao
!!!ONB: ESAC (Essen Associative Code) Database: CHINA_014
!!!AMT: irregular
!!!AIN: vox
!!!EED: Helmut Schaffrath
!!!EEV: 1.0
*-
!!!ONB: Tied note syntax fixed by Craig Sapp, 2004/05/03/
